watermark/watermark-white.svg

<svg width="1024" height="1024" fill="none" xmlns="http://www.w3.org/2000/svg"><g clip-path="url(#prefix__clip6_35)"><g mask="url(#prefix__mask6_51)" fill="#FFF" fill-opacity=".5" fill-rule="evenodd" clip-path="url(#prefix__clip6_49)"><path d="M860.28 3.72l116.15 87.52c7.35 5.55 8.83 16.02 3.28 23.39L703.33 481.4 560.51 373.78 836.9 7.01c5.54-7.37 16.01-8.84 23.38-3.29zM703.33 481.4L595.56 624.41l-35.05-250.63L703.33 481.4zM604.61 686.26l107.77-143.02 35.05 250.64-142.82-107.62zM777.08 1004.63L755.95 855.3 612.96 747.54l26.64 188.38 111.5 84.03c11.62 8.76 28.02-.9 25.98-15.32zM55.07 460.55l463.36-64.26 71.51 502.21L47.5 489.73c-11.61-8.74-6.82-27.19 7.57-29.18z"/></g></g></svg>

<svg width="1024.000000" height="1024.000000" viewBox="0 0 1024 1024" fill="none" xmlns="http://www.w3.org/2000/svg" xmlns:xlink="http://www.w3.org/1999/xlink">
	<defs>
		<clipPath id="clip6_49">
			<rect id="mark" width="942.839783" height="1024.000000" transform="translate(41.000000 0.000000)" fill="white" fill-opacity="0"/>
		</clipPath>
		<clipPath id="clip6_35">
			<rect id="watermark-white" width="1024.000000" height="1024.000000" fill="white" fill-opacity="0"/>
		</clipPath>
	</defs>
	<g clip-path="url(#clip6_35)">
		<g clip-path="url(#clip6_49)">
			<mask id="mask6_51" mask-type="alpha" maskUnits="userSpaceOnUse" x="41.000000" y="0.000000" width="942.839783" height="1024.000000">
				<rect id="rect" x="41.000000" width="942.839783" height="1024.000000" fill="#000000" fill-opacity="1.000000"/>
			</mask>
			<g mask="url(#mask6_51)">
				<path id="path" d="M860.28 3.72L976.43 91.24C983.78 96.79 985.26 107.26 979.71 114.63L703.33 481.4L560.51 373.78L836.9 7.01C842.44 -0.36 852.91 -1.83 860.28 3.72ZM703.33 481.4L595.56 624.41L560.51 373.78L703.33 481.4Z" fill="#FFFFFF" fill-opacity="0.500000" fill-rule="evenodd"/>
				<path id="path" d="M604.61 686.26L712.38 543.24L747.43 793.88L604.61 686.26Z" fill="#FFFFFF" fill-opacity="0.500000" fill-rule="evenodd"/>
				<path id="path" d="M777.08 1004.63L755.95 855.3L612.96 747.54L639.6 935.92L751.1 1019.95C762.72 1028.71 779.12 1019.05 777.08 1004.63Z" fill="#FFFFFF" fill-opacity="0.500000" fill-rule="evenodd"/>
				<path id="path" d="M55.07 460.55L518.43 396.29L589.94 898.5L47.5 489.73C35.89 480.99 40.68 462.54 55.07 460.55Z" fill="#FFFFFF" fill-opacity="0.500000" fill-rule="evenodd"/>
			</g>
		</g>
	</g>
</svg>
